X: 12544
T: Farewell To Lisheen
R: jig
M: 6/8
K: Dmajor
|:dfd cec|BAF AFD|dfd cec|BAF EFA|
dfd cec|BAF AFD|FFB AFD|1 EFE DFA:|2 EFE DA,B,||
|:DEF ABc|BAF AFE|DEF ABc|BAF ~E3|
DEF ABc|BAF ABd|~D2F AFD|EFE DA,B,:|

